X: 7
T: Guns Of The Magnificent Seven, The
C: Fintan McManus
Z: Erik-Fiddler
S: https://thesession.org/tunes/40#setting48705
R: reel
M: 4/4
L: 1/8
K: Ador
|:EA (3A/A/A/A ABcA|EAFA GAEA|EA (3A/A/A/A ABcd|egdB {d}BAAG:|
|:ABcd eA (3A/A/A/A|gedB {d}BAGB|ABcd ea{b}af|1 gedB {d}BA{B}AB:|2 gedB {d}BA {B}A2||
|:[M:3/4] e/f/g dB A2|[M:4/4] e/f/g dB GABd|eBdA a3 f|gedB {d}BA {B}A2:|

%-------------------- TUNE SEPARATOR --------------------%

